build/img/landings/motion/motion-need-1.svg

<svg width="433" height="353" viewBox="0 0 433 353" fill="none" xmlns="http://www.w3.org/2000/svg">
<g clip-path="url(#clip0)">
<path d="M238.079 59.2182L193.987 52.0568L204.434 24.0743C206.744 17.8812 203.725 15.0657 197.715 17.8124L145.501 41.6834L123.704 11.6137C120.573 7.29791 116.644 7.90635 114.965 12.9668L103.284 48.2269L46.2951 41.2654C39.736 40.465 37.71 44.0616 41.7843 49.2663L60.2107 72.7715L20.3432 92.9336C12.8449 96.7235 13.496 100.928 21.7903 102.279L65.8823 109.44L55.4349 137.423C53.1256 143.616 56.1444 146.431 62.1542 143.685L114.368 119.814L136.167 149.89C139.297 154.205 143.227 153.597 144.905 148.536L156.587 113.276L213.575 120.238C220.134 121.038 222.16 117.442 218.086 112.237L199.665 88.7246L239.526 68.5634C247.024 64.7735 246.373 60.5691 238.079 59.2182Z" fill="#171717"/>
<path d="M289.754 53.1025H1.46777V342.805H289.754V53.1025Z" fill="#F76567"/>
<path d="M148.526 107.044L63.8002 244.458L56.7715 284.015C58.0247 282.925 62.2746 284.941 78.8928 284.941C110.876 284.941 184.323 258.57 188.083 227.513C191.843 196.456 149.507 175.751 148.526 107.044Z" fill="#201000"/>
<path d="M159.804 53.1025C157.298 62.2562 155.01 71.3554 152.939 80.2911C133.215 163.927 130.164 233.397 109.677 250.179C92.0782 264.618 63.146 259.823 63.146 259.823L48.7617 318.831L59.6044 342.587H1.46777V53.1025H159.804Z" fill="white"/>
<path d="M42.3868 343.786C42.1689 343.786 41.8965 343.731 41.6785 343.677C40.1529 343.296 39.2811 341.77 39.6625 340.244L60.3673 259.06C60.7487 257.643 62.1108 256.717 63.5819 256.99C63.8544 257.044 91.4243 261.403 107.825 247.945C120.411 237.647 126.513 203.321 134.196 159.841C138.446 135.812 143.295 108.624 150.106 79.6373C151.359 74.3521 152.776 69.7753 154.301 64.9805C155.391 61.6024 156.481 58.1153 157.516 54.3012C157.952 52.7756 159.477 51.9039 161.003 52.3397C162.529 52.7756 163.4 54.3012 162.965 55.8269C161.875 59.7499 160.785 63.2914 159.695 66.7241C158.224 71.4644 156.808 75.9322 155.609 80.9994C148.798 109.823 144.003 136.957 139.754 160.931C131.526 207.298 125.587 240.807 111.366 252.467C95.8922 265.162 72.8991 263.909 65.162 263.037L45.1111 341.661C44.7842 342.969 43.64 343.786 42.3868 343.786Z" fill="#201000"/>
<path d="M159.804 53.1025C157.297 62.2562 155.009 71.3554 152.939 80.2911C144.057 63.8363 127.33 55.6089 108.587 53.1025H159.804Z" fill="#201000"/>
<path d="M96.6553 174.498C112.947 157.88 106.136 134.505 99.761 114.999L96.6553 174.498Z" fill="white"/>
<path d="M96.6547 177.276C95.9464 177.276 95.2381 177.004 94.6932 176.459C93.549 175.369 93.549 173.571 94.6387 172.482C109.187 157.661 104.065 137.229 97.0906 115.816C96.6002 114.345 97.4175 112.765 98.8886 112.274C100.414 111.784 101.994 112.601 102.43 114.072C108.151 131.562 116.815 157.934 98.6707 176.459C98.1258 177.004 97.363 177.276 96.6547 177.276Z" fill="#201000"/>
<path d="M135.286 114.073C134.741 114.073 134.196 113.909 133.706 113.582L127.277 109.278C125.969 108.406 125.642 106.663 126.514 105.355C127.386 104.047 129.129 103.72 130.437 104.592L136.866 108.896C138.174 109.768 138.501 111.512 137.629 112.819C137.139 113.582 136.212 114.073 135.286 114.073Z" fill="#201000"/>
<path d="M60.8582 115.217C56.4448 114.617 55.5185 121.428 59.9319 122.027C64.2908 122.627 65.2716 115.816 60.8582 115.217Z" fill="#201000"/>
<path d="M128.748 123.771C124.334 123.172 123.408 129.983 127.822 130.582C132.235 131.181 133.161 124.371 128.748 123.771Z" fill="#201000"/>
<path d="M48.2172 207.897C45.1115 207.897 42.0603 206.481 39.6084 203.865C35.413 199.397 33.8874 192.478 35.6854 185.83C36.0668 184.305 37.6469 183.433 39.118 183.814C40.6436 184.196 41.5154 185.776 41.134 187.247C39.6084 192.968 41.4609 197.545 43.7493 199.942C45.3839 201.686 47.3454 202.449 49.1435 202.067C50.6691 201.74 52.1402 202.776 52.4671 204.301C52.794 205.827 51.7588 207.298 50.2332 207.625C49.5794 207.843 48.9255 207.897 48.2172 207.897Z" fill="#201000"/>
<path d="M51.5957 97.3993C50.288 97.3993 49.0893 96.473 48.8169 95.1109C48.5444 93.5853 49.5252 92.1142 51.0508 91.8417L62.3294 89.7168C63.855 89.4443 65.3261 90.4251 65.5986 91.9507C65.871 93.4763 64.8903 94.9474 63.3646 95.2198L52.086 97.3448C51.9226 97.3448 51.7591 97.3993 51.5957 97.3993Z" fill="#201000"/>
<path d="M25.2239 343.35C24.3521 343.35 23.5348 342.969 22.9355 342.206L0.323724 312.075C-0.602539 310.822 -0.384595 309.078 0.868585 308.098C2.12177 307.171 3.86533 307.389 4.84608 308.643L27.4578 338.773C28.3841 340.026 28.1661 341.77 26.9129 342.751C26.4226 343.132 25.8232 343.35 25.2239 343.35Z" fill="#201000"/>
<path d="M60.0407 345.203C59.0055 345.203 57.9703 344.603 57.4799 343.623L46.2013 320.085C45.5474 318.668 46.0923 316.979 47.5089 316.325C48.9256 315.617 50.6146 316.216 51.2685 317.633L62.5471 341.171C63.2009 342.587 62.6561 344.277 61.2394 344.93C60.858 345.094 60.4766 345.203 60.0407 345.203Z" fill="#201000"/>
<path d="M1.68552 99.5249C1.68552 99.5249 66.6329 64.7083 74.152 53.3752L1.41309 53.1572L1.68552 99.5249Z" fill="#201000"/>
</g>
<defs>
<clipPath id="clip0">
<rect width="433" height="353" fill="white" transform="translate(0 -0.000488281)"/>
</clipPath>
</defs>
</svg>

<svg width="433" height="353" fill="none" xmlns="http://www.w3.org/2000/svg"><g clip-path="url(#clip0)"><path d="M238.079 59.218l-44.092-7.161 10.447-27.983c2.31-6.193-.709-9.008-6.719-6.262l-52.214 23.871-21.797-30.07c-3.131-4.315-7.06-3.707-8.739 1.354l-11.681 35.26-56.989-6.962c-6.559-.8-8.585 2.797-4.51 8.001L60.21 72.772 20.343 92.934c-7.498 3.79-6.847 7.994 1.447 9.345l44.092 7.161-10.447 27.983c-2.31 6.193.71 9.008 6.72 6.262l52.213-23.871 21.799 30.076c3.13 4.315 7.06 3.707 8.738-1.354l11.682-35.26 56.988 6.962c6.559.8 8.585-2.796 4.511-8.001l-18.421-23.512 39.861-20.162c7.498-3.79 6.847-7.994-1.447-9.345z" fill="#171717"/><path d="M289.754 53.102H1.468v289.703h288.286V53.103z" fill="#F76567"/><path d="M148.526 107.044L63.8 244.458l-7.028 39.557c1.253-1.09 5.503.926 22.12.926 31.984 0 105.431-26.371 109.191-57.428 3.76-31.057-38.576-51.762-39.557-120.469z" fill="#201000"/><path d="M159.804 53.102a711.528 711.528 0 00-6.865 27.19c-19.724 83.635-22.775 153.105-43.262 169.887-17.599 14.439-46.531 9.644-46.531 9.644l-14.384 59.008 10.842 23.756H1.468V53.103h158.336z" fill="#fff"/><path d="M42.387 343.786c-.218 0-.49-.055-.709-.109-1.525-.381-2.397-1.907-2.015-3.433l20.704-81.184c.382-1.417 1.744-2.343 3.215-2.07.272.054 27.842 4.413 44.243-9.045 12.586-10.298 18.688-44.624 26.371-88.104 4.25-24.029 9.099-51.217 15.91-80.204 1.253-5.285 2.67-9.862 4.195-14.656 1.09-3.379 2.18-6.866 3.215-10.68.436-1.525 1.961-2.397 3.487-1.961 1.526.436 2.397 1.961 1.962 3.487-1.09 3.923-2.18 7.464-3.27 10.897-1.471 4.74-2.887 9.208-4.086 14.275-6.811 28.824-11.606 55.958-15.855 79.932-8.228 46.367-14.167 79.876-28.388 91.536-15.474 12.695-38.467 11.442-46.204 10.57l-20.05 78.624a2.785 2.785 0 01-2.725 2.125z" fill="#201000"/><path d="M159.804 53.102a707.802 707.802 0 00-6.865 27.19c-8.882-16.456-25.609-24.683-44.352-27.19h51.217z" fill="#201000"/><path d="M96.655 174.498c16.292-16.618 9.481-39.993 3.106-59.499l-3.106 59.499z" fill="#fff"/><path d="M96.655 177.276a2.764 2.764 0 01-1.962-.817 2.78 2.78 0 01-.054-3.977c14.548-14.821 9.426-35.253 2.452-56.666-.49-1.471.327-3.051 1.798-3.542 1.525-.49 3.105.327 3.541 1.798 5.721 17.49 14.385 43.862-3.76 62.387-.544.545-1.307.817-2.015.817zm38.631-63.203c-.545 0-1.09-.164-1.58-.491l-6.429-4.304c-1.308-.872-1.635-2.615-.763-3.923.872-1.308 2.615-1.635 3.923-.763l6.429 4.304c1.308.872 1.635 2.616.763 3.923-.49.763-1.417 1.254-2.343 1.254zm-74.428 1.144c-4.413-.6-5.34 6.211-.926 6.81 4.359.6 5.34-6.211.926-6.81zm67.89 8.554c-4.414-.599-5.34 6.212-.926 6.811 4.413.599 5.339-6.211.926-6.811zm-80.531 84.126c-3.105 0-6.157-1.416-8.609-4.032-4.195-4.468-5.72-11.387-3.923-18.035.382-1.525 1.962-2.397 3.433-2.016 1.526.382 2.397 1.962 2.016 3.433-1.526 5.721.327 10.298 2.615 12.695 1.635 1.744 3.596 2.507 5.395 2.125 1.525-.327 2.996.709 3.323 2.234.327 1.526-.708 2.997-2.234 3.324-.654.218-1.307.272-2.016.272zM51.596 97.4a2.847 2.847 0 01-2.78-2.29c-.272-1.525.71-2.996 2.235-3.268l11.278-2.125c1.526-.273 2.997.708 3.27 2.234.272 1.525-.709 2.996-2.234 3.269l-11.279 2.125c-.163 0-.327.054-.49.054zM25.224 343.35c-.872 0-1.69-.381-2.288-1.144L.324 312.075a2.857 2.857 0 01.545-3.977 2.857 2.857 0 013.977.545l22.612 30.13a2.859 2.859 0 01-.545 3.978 2.78 2.78 0 01-1.69.599zm34.816 1.853c-1.035 0-2.07-.6-2.56-1.58L46.2 320.085c-.654-1.417-.109-3.106 1.308-3.76a2.763 2.763 0 013.76 1.308l11.278 23.538c.654 1.416.11 3.106-1.308 3.759-.381.164-.762.273-1.198.273zM1.686 99.525s64.947-34.817 72.466-46.15l-72.739-.218.273 46.368z" fill="#201000"/></g><defs><clipPath id="clip0"><path fill="#fff" d="M0 0h433v353H0z"/></clipPath></defs></svg>
